X: 7
T: After The Battle Of Aughrim
R: polka
M: 2/4
L: 1/8
K: Ador
|:E2A2 ABcd | e2A2 A2 AB | d2G2 GABc | d2G2 GABG |E2A2 ABcd | e2A2 a2ag | e2ed edBd |1 e2A2 A2AG :| 2 e2A2 A2Ag |||:a2e2 efge | a2e2 e2ef | g2d2 dc#de | g2d2 d2dg| a2e2 efge | a2e2 e2ed | c2c2 BAGA | 1 B2A2 A2Ag :| 2 B2A2 A2A2 ||


Tune 1308	Setting 1308

